rospo-icon-theme-classic-common/64x64/places/folder-magenta-meocloud.svg

<svg height="64" width="64" xmlns="http://www.w3.org/2000/svg"><rect height="32" opacity=".2" rx="2.5" width="50" x="7" y="24"/><path d="m7 44.5c0 1.385 1.115 2.5 2.5 2.5h45c1.385 0 2.5-1.115 2.5-2.5v-27c0-1.385-1.115-2.5-2.5-2.5h-25.5v-2.5c0-1.385-1.115-2.5-2.5-2.5h-17c-1.385 0-2.5 1.115-2.5 2.5" fill="#b259b8"/><rect height="32" opacity=".2" rx="2.5" width="50" x="7" y="22"/><rect fill="#e4e4e4" height="20" rx="2.5" width="44" x="10" y="18"/><rect fill="#ca71df" height="32" rx="2.5" width="50" x="7" y="23"/><path d="m9.5 10c-1.385 0-2.5 1.115-2.5 2.5v1c0-1.385 1.115-2.5 2.5-2.5h17c1.385 0 2.5 1.115 2.5 2.5v-1c0-1.385-1.115-2.5-2.5-2.5zm19.5 5v1h25.5c1.39 0 2.5 1.115 2.5 2.5v-1c0-1.385-1.11-2.5-2.5-2.5z" fill="#fff" opacity=".1"/><path d="m34.398 31c-2.405 0-4.604 1.353-5.695 3.496-.477-.195-.989-.296-1.504-.297-2.001 0-3.69 1.482-3.957 3.465-1.937.666-3.24 2.487-3.242 4.535 0 2.651 2.15 4.801 4.801 4.801h14.398c2.651 0 4.801-2.15 4.801-4.801-.002-2.037-1.288-3.85-3.211-4.523.006-.092.009-.186.012-.278 0-3.534-2.868-6.398-6.403-6.398zm0 4c1.37 0 2.394 1.023 2.399 2.39v.012a4.0004 4.0004 0 0 0 2.668 4.047c.334.117.534.399.536.75 0 .489-.312.801-.801.801h-14.398c-.488 0-.799-.31-.801-.797v-.004c.001-.354.203-.634.539-.75a4.0004 4.0004 0 0 0 2.664-3.246 4.0004 4.0004 0 0 0 5.066-1.891c.413-.812 1.224-1.312 2.128-1.312z" fill="#47274e"/></svg>

<svg xmlns="http://www.w3.org/2000/svg" width="64" height="64" version="1.1">
 <rect style="opacity:0.2" width="50" height="32" x="7" y="24" rx="2.5" ry="2.5"/>
 <path style="fill:#b259b8" d="M 7,44.5 C 7,45.885 8.115,47 9.5,47 H 54.5 C 55.885,47 57,45.885 57,44.5 V 17.5 C 57,16.115 55.885,15 54.5,15 H 29 V 12.5 C 29,11.115 27.885,10 26.5,10 H 9.5 C 8.115,10 7,11.115 7,12.5"/>
 <rect style="opacity:0.2" width="50" height="32" x="7" y="22" rx="2.5" ry="2.5"/>
 <rect style="fill:#dcdcdc" width="44" height="20" x="10" y="18" rx="2.5" ry="2.5"/>
 <rect style="fill:#ca71df" width="50" height="32" x="7" y="23" rx="2.5" ry="2.5"/>
 <path style="opacity:0.1;fill:#ffffff" d="M 9.5,10 C 8.115,10 7,11.115 7,12.5 V 13.5 C 7,12.115 8.115,11 9.5,11 H 26.5 C 27.885,11 29,12.115 29,13.5 V 12.5 C 29,11.115 27.885,10 26.5,10 Z M 29,15 V 16 H 54.5 C 55.89,16 57,17.115 57,18.5 V 17.5 C 57,16.115 55.89,15 54.5,15 Z"/>
 <path style="fill:#47274e" d="M 34.398,31 C 31.993,31 29.794,32.353 28.703,34.496 28.226,34.301 27.714,34.2 27.199,34.199 25.198,34.199 23.509,35.681 23.242,37.664 21.305,38.33 20.002,40.151 20,42.199 20,44.85 22.15,47 24.801,47 H 39.199 C 41.85,47 44,44.85 44,42.199 43.998,40.162 42.712,38.349 40.789,37.676 40.795,37.584 40.798,37.49 40.801,37.398 40.801,33.864 37.933,31 34.398,31 Z M 34.398,35 C 35.768,35 36.792,36.023 36.797,37.39 36.797,37.392 36.797,37.401 36.797,37.402 A 4.0004,4.0004 0 0 0 39.465,41.449 C 39.799,41.566 39.999,41.848 40.001,42.199 40.001,42.688 39.689,43 39.2,43 H 24.802 C 24.314,43 24.003,42.69 24.001,42.203 V 42.199 C 24.002,41.845 24.204,41.565 24.54,41.449 A 4.0004,4.0004 0 0 0 27.204,38.203 4.0004,4.0004 0 0 0 32.27,36.312 C 32.683,35.5 33.494,35 34.398,35 Z"/>
</svg>
